assets/img/alias/gap-discover.svg

<svg width="566" height="205" viewBox="0 0 566 155" fill="none" xmlns="http://www.w3.org/2000/svg">
<g clip-path="url(#clip0_3871_24904)">
<path fill-rule="evenodd" clip-rule="evenodd" d="M25.8485 87.5294H18.7368V83.1985H44.0838V87.5294H38.1118V145.563H34.4647C34.4647 142.919 33.1426 140.731 31.3191 141.551C30.6292 141.943 29.9597 142.369 29.3132 142.828C26.131 145.256 22.2381 146.57 18.2353 146.566C9.11765 146.566 0 143.238 0 125.824V25.8485C0 12.2632 10.2574 9.11765 17.4147 9.11765C22.021 9.37034 26.4552 10.954 30.1794 13.6765C31.3191 14.3603 32.6412 14.4971 32.6412 12.3544V10.2574H36.7897V52.8824H31.9118C29.5868 52.8824 28.7206 52.0618 28.7206 49.9191C28.5642 40.7538 27.7415 31.6121 26.2588 22.5662C24.9368 16.4118 21.7 12.4456 17.4603 12.4456C11.9441 12.0809 11.2603 19.375 11.2603 22.7941V135.762C11.1921 136.77 11.3263 137.781 11.6552 138.736C11.984 139.691 12.5008 140.571 13.175 141.324C14.5087 142.696 16.3228 143.496 18.2353 143.557C20.2346 143.486 22.1244 142.626 23.4913 141.165C24.8581 139.704 25.5909 137.761 25.5294 135.762L25.8485 87.5294ZM162.112 10.2574H137.768V14.2691H144.241V137.585C144.241 140.229 143.056 141.232 139.09 141.415H137.768V144.879H165.121V141.324H162.34C157.781 141.324 156.003 139.318 155.866 135.169V87.5294H164.118C175.743 87.5294 182.353 81.8765 182.353 74.4456V24.5265C182.353 17.0956 176.563 10.2574 162.112 10.2574ZM170.591 48.4147V74.9471C170.671 75.9974 170.525 77.0527 170.164 78.0421C169.802 79.0314 169.233 79.932 168.495 80.6833C167.756 81.4346 166.866 82.0193 165.883 82.3981C164.9 82.7768 163.847 82.941 162.796 82.8794H156.003V14.4971H162.112C164.329 14.4965 166.459 15.3648 168.044 16.9158C169.629 18.4668 170.543 20.577 170.591 22.7941V48.4147ZM78.2294 83.1985L84.7029 29.1765L91.9971 83.3809L78.2294 83.1985ZM94.5044 10.2574L110.096 135.26C110.078 136.109 110.241 136.952 110.574 137.732C110.908 138.513 111.404 139.213 112.029 139.787C112.655 140.361 113.396 140.794 114.202 141.059C115.008 141.324 115.862 141.414 116.706 141.324H117.39V144.834H92.8176V141.324H94.6412C98.4706 141.324 98.7897 140.001 98.7897 136.765L92.6809 87.3471H77.7279L71.9382 136.765C71.9446 137.738 72.3006 138.676 72.9412 139.409C74.6208 140.767 76.7616 141.421 78.9132 141.232V144.743H59.675V140.913C65.6015 140.594 65.8294 139.591 66.6044 135.671L82.0588 10.2574H94.5044Z" fill="white"/>
<path fill-rule="evenodd" clip-rule="evenodd" d="M218.824 0C215.196 0 211.718 1.44091 209.153 4.00575C206.588 6.57058 205.147 10.0492 205.147 13.6765V141.324C205.147 144.951 206.588 148.429 209.153 150.994C211.718 153.559 215.196 155 218.824 155H551.618C555.245 155 558.723 153.559 561.288 150.994C563.853 148.429 565.294 144.951 565.294 141.324V13.6765C565.294 10.0492 563.853 6.57058 561.288 4.00575C558.723 1.44091 555.245 0 551.618 0H218.824ZM267.876 40.3912H280.322L274.213 69.9324H274.441C276.619 67.0451 279.425 64.6911 282.647 63.0485C285.848 61.3485 289.416 60.4565 293.041 60.45C295.279 60.2489 297.534 60.5004 299.672 61.1897C301.81 61.8789 303.788 62.9917 305.487 64.4618C306.862 65.9204 307.93 67.6406 308.627 69.5202C309.324 71.3998 309.636 73.4004 309.544 75.4029C309.544 76.4515 309.544 77.5912 309.544 78.9132C309.48 80.0931 309.328 81.2665 309.088 82.4235L301.429 118.529H288.984L296.324 83.6088C296.536 82.6971 296.719 81.7853 296.871 80.8735C297.086 80.0552 297.193 79.2123 297.19 78.3662C297.226 77.7132 297.226 77.0588 297.19 76.4059C297.179 75.4414 296.912 74.4972 296.415 73.6706C295.807 72.6258 294.902 71.785 293.816 71.2544C292.2 70.5296 290.434 70.2014 288.665 70.2971C286.327 70.2624 284.02 70.8275 281.963 71.9382C278.031 73.929 274.836 77.1233 272.846 81.0559C271.794 83.1682 271.013 85.4044 270.521 87.7118L264.138 118.529H251.647C250.781 118.529 249.915 118.803 249.003 118.94C247.294 119.154 245.574 119.261 243.851 119.259C241.959 119.324 240.072 119.03 238.29 118.393C236.959 117.892 235.759 117.097 234.779 116.068C233.998 115.06 233.411 113.916 233.047 112.694C232.741 111.41 232.588 110.094 232.591 108.774C232.53 107.559 232.53 106.341 232.591 105.126C232.834 103.85 233.017 102.938 233.138 102.391L239.612 71.4368H230.038L231.999 62.3191H241.846L245.356 45.3603H257.482L253.972 62.3191H263.409L267.876 40.3912ZM261.449 71.2544L253.607 109.138H252.65H249.596C248.938 109.236 248.266 109.189 247.628 109C246.99 108.811 246.401 108.485 245.903 108.044C245.343 107.127 245.073 106.063 245.128 104.99C245.145 104.1 245.252 103.214 245.447 102.346C245.447 101.251 245.903 100.112 246.222 98.8353L252.012 71.1632L261.449 71.2544ZM326.64 62.1368H314.787L303.116 118.529H315.562L320.804 93.4559C321.382 90.7032 322.19 88.004 323.221 85.3868C324.184 82.9316 325.522 80.6403 327.187 78.5941C328.829 76.6462 330.885 75.0888 333.204 74.0353C335.835 72.8363 338.702 72.2443 341.593 72.3029H341.912C339.6 75.4167 337.799 78.8793 336.578 82.5603C335.219 86.6946 334.527 91.0187 334.526 95.3706C334.461 98.9203 335.08 102.449 336.35 105.765C337.545 108.673 339.294 111.321 341.501 113.56C343.775 115.723 346.456 117.412 349.388 118.529C352.581 119.646 355.944 120.201 359.326 120.171C365.407 120.366 371.412 118.782 376.604 115.612C378.973 114.057 381.004 112.042 382.576 109.685C382.779 110.33 383.039 110.955 383.351 111.554C384.285 113.332 385.591 114.887 387.181 116.113C388.903 117.377 390.831 118.333 392.879 118.94C395.036 119.602 397.279 119.94 399.535 119.943C403.025 120.059 406.509 119.581 409.838 118.529C413.136 117.399 416.13 115.528 418.591 113.059C418.636 115.037 419.455 116.919 420.871 118.301C421.569 118.965 422.391 119.485 423.291 119.829C424.191 120.173 425.15 120.336 426.113 120.307C427.77 120.311 429.421 120.127 431.037 119.76L435.869 118.529L437.328 111.782C438.571 113.556 440.113 115.099 441.887 116.341C444.103 117.825 446.602 118.834 449.226 119.304C451.239 119.711 453.283 119.94 455.335 119.988C458.656 120.045 461.951 119.392 465 118.074C468.395 116.441 471.245 113.86 473.206 110.643V110.871L471.565 118.529H483.509L486.746 103.257C486.965 105.594 487.581 107.876 488.569 110.004C489.736 112.382 491.456 114.445 493.584 116.022C495.835 117.521 498.36 118.559 501.015 119.076C504.008 119.741 507.066 120.077 510.132 120.079C513.205 120.084 516.266 119.717 519.25 118.985C522.128 118.38 524.875 117.269 527.365 115.703C529.668 114.198 531.613 112.206 533.063 109.868C534.58 107.339 535.34 104.427 535.251 101.479C535.303 99.4789 534.93 97.4902 534.157 95.6441C533.438 94.0878 532.433 92.6805 531.194 91.4956C529.964 90.3102 528.566 89.3118 527.046 88.5324C525.404 87.7422 523.763 87.0127 522.122 86.3441C520.116 85.6147 518.156 85.0221 516.196 84.5206C514.235 84.0191 512.457 83.3353 510.816 82.7426C509.407 82.2141 508.085 81.4764 506.896 80.5544C506.433 80.1748 506.065 79.6932 505.82 79.1475C505.575 78.6018 505.459 78.0067 505.482 77.4088C505.414 76.2189 505.683 75.0338 506.257 73.9897C506.767 73.0695 507.525 72.3112 508.446 71.8015C509.384 71.2252 510.419 70.8236 511.5 70.6162C512.687 70.3928 513.893 70.2859 515.101 70.2971C517.939 70.1566 520.756 70.8372 523.216 72.2574C524.259 72.9229 525.111 73.8491 525.686 74.9444C526.262 76.0397 526.542 77.2663 526.498 78.5029H538.306C538.451 75.4971 537.889 72.4991 536.665 69.75C535.675 67.5059 534.101 65.5692 532.106 64.1426C529.989 62.7199 527.597 61.757 525.085 61.3162C522.238 60.7145 519.334 60.4241 516.423 60.45C513.555 60.4453 510.695 60.7665 507.899 61.4074C505.274 62.0217 502.765 63.0529 500.468 64.4618C498.308 65.8469 496.473 67.6818 495.088 69.8412C493.743 72.2481 493.066 74.9712 493.128 77.7279C493.084 79.6009 493.425 81.4629 494.131 83.1985C494.772 84.7147 495.701 86.0925 496.866 87.2559C498.048 88.3599 499.366 89.3096 500.787 90.0824C502.343 90.9013 503.958 91.6022 505.619 92.1794C507.579 92.9088 509.585 93.5471 511.637 94.1397C513.537 94.6524 515.396 95.3077 517.198 96.1C518.698 96.6285 520.077 97.4498 521.256 98.5162C521.782 98.9546 522.204 99.506 522.488 100.13C522.772 100.753 522.912 101.433 522.897 102.118C522.937 103.561 522.523 104.98 521.712 106.175C520.964 107.201 519.979 108.03 518.84 108.591C517.623 109.179 516.336 109.608 515.01 109.868C513.67 110.1 512.313 110.222 510.953 110.232C507.77 110.36 504.614 109.602 501.835 108.044C500.619 107.205 499.659 106.045 499.064 104.693C498.468 103.34 498.26 101.849 498.462 100.385H487.429L500.194 40.3912H487.794L481.412 69.75C480.172 66.5453 477.737 63.9467 474.619 62.5015C471.369 61.0965 467.857 60.3973 464.316 60.45C459.767 60.434 455.291 61.5962 451.324 63.8235C447.553 65.8378 444.258 68.6358 441.659 72.0294C439.476 74.9216 437.725 78.1158 436.462 81.5118C437.021 78.9803 437.327 76.3994 437.374 73.8074C437.333 72.5502 437.18 71.2992 436.918 70.0691C436.589 68.3211 435.711 66.7238 434.41 65.5103C432.606 63.8547 430.434 62.6515 428.074 62C424.199 60.8589 420.166 60.3509 416.129 60.4956C412.929 60.4793 409.735 60.8002 406.601 61.4529C403.792 62.0005 401.114 63.0839 398.715 64.6441C396.359 66.1259 394.352 68.1012 392.834 70.4338C391.154 72.985 390.021 75.8567 389.506 78.8676C389.506 78.5029 389.506 78.1382 389.278 77.7735C388.689 74.7542 387.495 71.8853 385.768 69.3397C383.868 66.6379 381.331 64.4458 378.382 62.9574C374.562 61.1277 370.351 60.2666 366.119 60.45C361.378 60.3252 356.68 61.3745 352.443 63.5044C350.578 64.4613 348.808 65.5908 347.154 66.8779L348.522 60.7691C347.505 60.7008 346.485 60.7008 345.468 60.7691C344.51 60.7691 343.507 60.7691 342.504 60.7691C340.542 60.7508 338.598 61.155 336.806 61.9544C335.037 62.7131 333.381 63.7101 331.882 64.9176C330.317 66.1014 328.894 67.463 327.643 68.975C326.443 70.395 325.375 71.9208 324.451 73.5338L326.64 62.1368ZM435.915 109.412V109.822H435.413C434.692 109.965 433.96 110.042 433.225 110.05C432.847 110.094 432.464 110.055 432.102 109.937C431.74 109.819 431.408 109.624 431.128 109.366C430.726 108.829 430.532 108.166 430.581 107.497C430.602 106.62 430.725 105.748 430.946 104.899C431.219 103.941 431.493 102.938 431.675 101.935L433.225 94.5956C433.225 95.2794 433.225 95.9632 433.225 96.6926C433.039 101.091 433.964 105.465 435.915 109.412ZM389.369 79.1412C389.822 81.6076 390.051 84.11 390.053 86.6176C390.053 87.8029 390.053 88.8971 390.053 89.9456C392.075 88.6023 394.288 87.5725 396.618 86.8912C399.608 86.1444 402.659 85.6714 405.735 85.4779C409.975 85.2044 414.123 84.8853 418.226 84.5206C419.155 84.522 420.073 84.3279 420.921 83.9509C421.77 83.5738 422.529 83.0224 423.15 82.3324C424.283 80.8078 424.862 78.9423 424.791 77.0441C424.92 75.9729 424.719 74.8877 424.214 73.9343C423.708 72.9809 422.924 72.2048 421.965 71.7103C419.872 70.7223 417.577 70.2383 415.263 70.2971C412.125 70.2039 409.007 70.8276 406.146 72.1206C404.838 72.836 403.711 73.8401 402.85 75.0567C401.989 76.2733 401.416 77.6702 401.176 79.1412H389.369ZM385.722 93.4559H347.291C347.291 93.8206 347.291 94.1853 347.063 94.4588V97.1029C346.909 100.528 347.993 103.894 350.118 106.585C351.488 107.902 353.125 108.909 354.918 109.539C356.712 110.168 358.619 110.404 360.512 110.232C363.564 110.317 366.574 109.509 369.174 107.907C371.634 106.326 373.396 103.863 374.097 101.024H382.257C382.534 99.3331 383.088 97.7002 383.898 96.1912C384.437 95.2351 385.047 94.3207 385.722 93.4559ZM377.471 85.25C377.505 84.9623 377.505 84.6716 377.471 84.3838V81.7853C377.536 80.2711 377.286 78.7598 376.737 77.3472C376.188 75.9346 375.351 74.6516 374.279 73.5794C373.13 72.4517 371.758 71.577 370.25 71.0117C368.743 70.4464 367.134 70.203 365.526 70.2971C363.474 70.2009 361.423 70.5275 359.502 71.2569C357.58 71.9862 355.829 73.1026 354.357 74.5368C351.486 77.5477 349.417 81.2314 348.34 85.25H377.471ZM395.25 106.494C394.654 105.422 394.355 104.21 394.384 102.984C394.334 101.984 394.509 100.987 394.896 100.064C395.282 99.1406 395.871 98.3159 396.618 97.65C398.092 96.3104 399.854 95.3277 401.769 94.7779C403.855 94.1217 406.014 93.7236 408.197 93.5927L414.351 93.1368C415.782 92.9811 417.198 92.722 418.591 92.3618C419.905 92.0844 421.119 91.454 422.101 90.5382C421.694 93.139 421.069 95.7009 420.232 98.1971C419.572 100.434 418.489 102.523 417.041 104.351C415.702 106.129 413.949 107.553 411.935 108.5C409.533 109.592 406.914 110.122 404.276 110.05C403.097 110.044 401.921 109.922 400.766 109.685C399.656 109.429 398.583 109.031 397.575 108.5C396.692 107.968 395.906 107.289 395.25 106.494ZM478.129 83.7C478.143 81.9263 477.897 80.1601 477.4 78.4574C476.999 76.8837 476.251 75.4196 475.212 74.1721C474.192 72.9017 472.878 71.9 471.382 71.2544C469.583 70.4863 467.64 70.1132 465.684 70.1603C462.477 70.0289 459.303 70.854 456.566 72.5309C454.088 74.0907 451.999 76.1957 450.457 78.6853C448.787 81.3428 447.555 84.2522 446.81 87.3015C446.087 90.3951 445.72 93.5612 445.716 96.7382C445.505 100.305 446.645 103.82 448.907 106.585C450.189 107.832 451.723 108.791 453.405 109.396C455.088 110.002 456.881 110.24 458.663 110.096C461.659 110.152 464.595 109.259 467.051 107.543C469.478 105.874 471.528 103.716 473.069 101.206C474.754 98.5778 476.016 95.701 476.807 92.6809C477.621 89.8008 478.066 86.8289 478.129 83.8368V83.7Z" fill="url(#paint0_linear_3871_24904)"/>
</g>
<defs>
<linearGradient id="paint0_linear_3871_24904" x1="197.443" y1="-156.596" x2="559.413" y2="294.682" gradientUnits="userSpaceOnUse">
<stop stop-color="#00FFF0"/>
<stop offset="1" stop-color="#EB00FF"/>
</linearGradient>
<clipPath id="clip0_3871_24904">
<rect width="565.294" height="155" fill="white"/>
</clipPath>
</defs>
</svg>

<svg width="566" height="205" viewBox="0 0 566 155" fill="none" xmlns="http://www.w3.org/2000/svg"><g clip-path="url(#a)" fill-rule="evenodd" clip-rule="evenodd"><path d="M25.849 87.53h-7.112v-4.332h25.347v4.331h-5.972v58.034h-3.647c0-2.644-1.322-4.832-3.146-4.012-.69.392-1.36.818-2.006 1.277a18.233 18.233 0 0 1-11.078 3.738C9.118 146.566 0 143.238 0 125.824V25.849C0 12.263 10.257 9.117 17.415 9.117a23.843 23.843 0 0 1 12.764 4.559c1.14.683 2.462.82 2.462-1.323v-2.097h4.149v42.625h-4.878c-2.325 0-3.191-.82-3.191-2.963a189.047 189.047 0 0 0-2.462-27.353c-1.322-6.154-4.559-10.12-8.799-10.12-5.516-.365-6.2 6.929-6.2 10.348v112.968a7.564 7.564 0 0 0 1.915 5.562 7.385 7.385 0 0 0 5.06 2.233 7.565 7.565 0 0 0 7.294-7.795l.32-48.233Zm136.263-77.273h-24.344v4.012h6.473v123.316c0 2.644-1.185 3.647-5.151 3.83h-1.322v3.464h27.353v-3.555h-2.781c-4.559 0-6.337-2.006-6.474-6.155v-47.64h8.252c11.625 0 18.235-5.653 18.235-13.083v-49.92c0-7.43-5.79-14.269-20.241-14.269Zm8.479 38.158v26.532a7.392 7.392 0 0 1-2.096 5.736 7.392 7.392 0 0 1-5.699 2.196h-6.793V14.497h6.109a8.48 8.48 0 0 1 8.479 8.297v25.62ZM78.229 83.198l6.474-54.021 7.294 54.204-13.768-.183Zm16.275-72.94 15.592 125.002a5.974 5.974 0 0 0 1.933 4.527 5.977 5.977 0 0 0 2.173 1.272c.806.265 1.66.355 2.504.265h.684v3.51H92.818v-3.51h1.823c3.83 0 4.149-1.323 4.149-4.559l-6.11-49.418H77.729l-5.79 49.418a4.058 4.058 0 0 0 1.003 2.644 8.338 8.338 0 0 0 5.972 1.823v3.511H59.675v-3.83c5.927-.319 6.154-1.322 6.93-5.242L82.058 10.257h12.445Z" fill="#fff"/><path d="M218.824 0a13.676 13.676 0 0 0-13.677 13.677v127.647A13.675 13.675 0 0 0 218.824 155h332.794a13.675 13.675 0 0 0 13.676-13.676V13.676A13.676 13.676 0 0 0 551.618 0H218.824Zm49.052 40.391h12.446l-6.109 29.541h.228a23.845 23.845 0 0 1 8.206-6.884 22.245 22.245 0 0 1 10.394-2.598 16.73 16.73 0 0 1 12.446 4.012 14.955 14.955 0 0 1 4.057 10.94v3.511a23.566 23.566 0 0 1-.456 3.51l-7.659 36.106h-12.445l7.34-34.92a44.08 44.08 0 0 0 .547-2.735 9.73 9.73 0 0 0 .319-2.508c.036-.653.036-1.307 0-1.96a5.428 5.428 0 0 0-.775-2.735 6.11 6.11 0 0 0-2.599-2.417 11.119 11.119 0 0 0-5.151-.957 13.678 13.678 0 0 0-6.702 1.641 20.694 20.694 0 0 0-9.117 9.118 28.051 28.051 0 0 0-2.325 6.656l-6.383 30.817h-12.491c-.866 0-1.732.274-2.644.411a41.073 41.073 0 0 1-5.152.319 14.992 14.992 0 0 1-5.561-.866 9.442 9.442 0 0 1-3.511-2.325 10.317 10.317 0 0 1-1.732-3.374 16.746 16.746 0 0 1-.456-3.92 36.383 36.383 0 0 1 0-3.648c.243-1.276.426-2.188.547-2.735l6.474-30.954h-9.574l1.961-9.118h9.847l3.51-16.959h12.126l-3.51 16.96h9.437l4.467-21.929Zm-6.427 30.863-7.842 37.884h-4.011a4.563 4.563 0 0 1-3.693-1.094 5.335 5.335 0 0 1-.775-3.054c.017-.89.124-1.776.319-2.644 0-1.095.456-2.234.775-3.51l5.79-27.673 9.437.091Zm65.191-9.117h-11.853l-11.671 56.392h12.446l5.242-25.073a50.108 50.108 0 0 1 2.417-8.07 25.536 25.536 0 0 1 3.966-6.792 17.145 17.145 0 0 1 6.017-4.559 19.287 19.287 0 0 1 8.389-1.732h.319a36.465 36.465 0 0 0-5.334 10.257 41.052 41.052 0 0 0-2.052 12.81 27.645 27.645 0 0 0 1.824 10.395 24.213 24.213 0 0 0 5.151 7.795 23.671 23.671 0 0 0 7.887 4.969 29.311 29.311 0 0 0 9.938 1.642 31.234 31.234 0 0 0 17.278-4.559 21.083 21.083 0 0 0 5.972-5.927c.203.645.463 1.27.775 1.869a13.945 13.945 0 0 0 3.83 4.559 18.526 18.526 0 0 0 5.698 2.827c2.157.662 4.4 1 6.656 1.003 3.49.116 6.974-.362 10.303-1.414a22.785 22.785 0 0 0 8.753-5.47 7.566 7.566 0 0 0 2.28 5.242 7.286 7.286 0 0 0 5.242 2.006 21.99 21.99 0 0 0 4.924-.547l4.832-1.231 1.459-6.747a18.575 18.575 0 0 0 4.559 4.559 19.308 19.308 0 0 0 7.339 2.963c2.013.407 4.057.636 6.109.684a23.349 23.349 0 0 0 9.665-1.914 19.52 19.52 0 0 0 8.206-7.431v.228l-1.641 7.658h11.944l3.237-15.272a20.581 20.581 0 0 0 1.823 6.747 16.585 16.585 0 0 0 5.015 6.018 20.461 20.461 0 0 0 7.431 3.054 42.166 42.166 0 0 0 9.117 1.003 38.007 38.007 0 0 0 9.118-1.094 24.84 24.84 0 0 0 8.115-3.282 18.82 18.82 0 0 0 5.698-5.835 15.406 15.406 0 0 0 2.188-8.389c.052-2-.321-3.989-1.094-5.835a13.677 13.677 0 0 0-2.963-4.148 17.455 17.455 0 0 0-4.148-2.964 87.432 87.432 0 0 0-4.924-2.188 62.752 62.752 0 0 0-5.926-1.823c-1.961-.502-3.739-1.186-5.38-1.778a14.987 14.987 0 0 1-3.92-2.189 3.867 3.867 0 0 1-1.414-3.145 6.347 6.347 0 0 1 .775-3.42 5.606 5.606 0 0 1 2.189-2.188 9.116 9.116 0 0 1 3.054-1.185 18.54 18.54 0 0 1 3.601-.319c2.838-.14 5.655.54 8.115 1.96a7.107 7.107 0 0 1 3.282 6.246h11.808a19.24 19.24 0 0 0-1.641-8.753 13.681 13.681 0 0 0-4.559-5.607 18.24 18.24 0 0 0-7.021-2.827 40.16 40.16 0 0 0-8.662-.866 37.876 37.876 0 0 0-8.524.957 25.19 25.19 0 0 0-7.431 3.055 17.817 17.817 0 0 0-5.38 5.38 15.456 15.456 0 0 0-1.96 7.886 13.666 13.666 0 0 0 1.003 5.47 12.752 12.752 0 0 0 2.735 4.058 19.144 19.144 0 0 0 3.921 2.826 35.145 35.145 0 0 0 4.832 2.097c1.96.73 3.966 1.368 6.018 1.96a39.25 39.25 0 0 1 5.561 1.961c1.5.529 2.879 1.35 4.058 2.416a4.563 4.563 0 0 1 1.641 3.602 6.884 6.884 0 0 1-1.185 4.057 7.842 7.842 0 0 1-2.872 2.416 15.784 15.784 0 0 1-3.83 1.277c-1.34.232-2.697.354-4.057.364a17.23 17.23 0 0 1-9.118-2.188 7.976 7.976 0 0 1-3.373-7.659h-11.033l12.765-59.994h-12.4l-6.382 29.359a13.265 13.265 0 0 0-6.793-7.248 25.027 25.027 0 0 0-10.303-2.052 26.349 26.349 0 0 0-12.992 3.373 29.943 29.943 0 0 0-9.665 8.206 37.354 37.354 0 0 0-5.197 9.483c.559-2.532.865-5.113.912-7.705a21.275 21.275 0 0 0-.456-3.738 8.343 8.343 0 0 0-2.508-4.559 15.453 15.453 0 0 0-6.336-3.51 37.524 37.524 0 0 0-11.945-1.504c-3.2-.017-6.394.304-9.528.957a22.287 22.287 0 0 0-7.886 3.191 19.234 19.234 0 0 0-5.881 5.79 22.114 22.114 0 0 0-3.328 8.434c0-.365 0-.73-.228-1.094a22.797 22.797 0 0 0-3.51-8.434 20.103 20.103 0 0 0-7.386-6.383 25.8 25.8 0 0 0-12.263-2.507 28.764 28.764 0 0 0-13.676 3.054 33.55 33.55 0 0 0-5.289 3.374l1.368-6.109a22.785 22.785 0 0 0-3.054 0h-2.964a13.675 13.675 0 0 0-5.698 1.185 21.117 21.117 0 0 0-4.924 2.964 25.353 25.353 0 0 0-4.239 4.057 30.717 30.717 0 0 0-3.192 4.559l2.189-11.397Zm109.275 47.275v.41h-.502a11.91 11.91 0 0 1-2.188.228 2.639 2.639 0 0 1-2.097-.684 2.778 2.778 0 0 1-.547-1.869c.021-.877.144-1.749.365-2.598.273-.958.547-1.961.729-2.964l1.55-7.34v2.098a26.204 26.204 0 0 0 2.69 12.719Zm-46.546-30.27a41.56 41.56 0 0 1 .684 7.476v3.328a24.072 24.072 0 0 1 6.565-3.055 50.775 50.775 0 0 1 9.117-1.413c4.24-.274 8.388-.593 12.491-.957a6.608 6.608 0 0 0 4.924-2.189 8.343 8.343 0 0 0 1.641-5.288 5.292 5.292 0 0 0-2.826-5.334 14.817 14.817 0 0 0-6.702-1.413 20.65 20.65 0 0 0-9.117 1.824 9.797 9.797 0 0 0-4.97 7.02h-11.807Zm-3.647 14.314h-38.431c0 .365 0 .73-.228 1.003v2.644a14.265 14.265 0 0 0 3.055 9.482 13.276 13.276 0 0 0 4.8 2.954c1.794.629 3.701.865 5.594.693a15.68 15.68 0 0 0 8.662-2.325 11.444 11.444 0 0 0 4.923-6.883h8.16c.277-1.69.831-3.324 1.641-4.833a22.026 22.026 0 0 1 1.824-2.735Zm-8.251-8.206a3.69 3.69 0 0 0 0-.866v-2.599a10.955 10.955 0 0 0-3.192-8.206 11.529 11.529 0 0 0-8.753-3.282 14.994 14.994 0 0 0-11.169 4.24 24.844 24.844 0 0 0-6.017 10.713h29.131Zm17.779 21.244a6.889 6.889 0 0 1-.866-3.51 6.693 6.693 0 0 1 2.234-5.334 12.987 12.987 0 0 1 5.151-2.872 26.76 26.76 0 0 1 6.428-1.185l6.154-.456a29.812 29.812 0 0 0 4.24-.775 7.383 7.383 0 0 0 3.51-1.824 46.898 46.898 0 0 1-1.869 7.66 18.209 18.209 0 0 1-3.191 6.153 13.678 13.678 0 0 1-5.106 4.149 17.36 17.36 0 0 1-7.659 1.55 17.918 17.918 0 0 1-3.51-.365 13.223 13.223 0 0 1-3.191-1.185 9.113 9.113 0 0 1-2.325-2.006ZM478.129 83.7a18.198 18.198 0 0 0-.729-5.243 10.904 10.904 0 0 0-2.188-4.285 9.985 9.985 0 0 0-3.83-2.918 13.673 13.673 0 0 0-5.698-1.094 16.185 16.185 0 0 0-9.118 2.37 19.246 19.246 0 0 0-6.109 6.155 29.236 29.236 0 0 0-3.647 8.617 41.697 41.697 0 0 0-1.094 9.436 14.225 14.225 0 0 0 3.191 9.847 12.54 12.54 0 0 0 9.756 3.511 14.18 14.18 0 0 0 8.388-2.553 21.07 21.07 0 0 0 6.018-6.337 29.773 29.773 0 0 0 3.738-8.525 35.247 35.247 0 0 0 1.322-8.844V83.7Z" fill="url(#b)"/></g><defs><linearGradient id="b" x1="197.443" y1="-156.596" x2="559.413" y2="294.682" gradientUnits="userSpaceOnUse"><stop stop-color="#00FFF0"/><stop offset="1" stop-color="#EB00FF"/></linearGradient><clipPath id="a"><path fill="#fff" d="M0 0h565.294v155H0z"/></clipPath></defs></svg>
